X:1
T:Datchet, 10.10.10.10
T:Datchet, 10.10.10.10
T:George Job Elvey (1816-1893)
T:Public Domain Courtesy of the Cyber Hymnal™
C:George Job Elvey (1816-1893)
Z:Public Domain
Z:Courtesy of the Cyber Hymnal™
%%score ( 1 2 ) ( 3 4 )
L:1/8
Q:1/4=118
M:3/4
K:A
V:1 treble 
V:2 treble 
V:3 bass 
V:4 bass 
V:1
 [CE]2 | [EA]2 [CA]2 [FB]2 | [EG]2 E2 [EG]2 | [EA]4 [EB]2 | [Ec]4 [Ec]2 | [Ee]2 [EB]2 [Ec]2 | %6
 ([FA][FA]) F2 [^DB]2 | (G2 A2) [^DF]2 | E4 E2 | [DF]2 [DF]2 [DG]2 | [CA]2 [CA]2 [FB]2 | %11
 [Ec]4 [F^d]2 x | [Ge]4 [Ge]2 | [FA]2 [Ed]2 [Ec]2 | c2 z D [CA]2 | ([Fd]2 [Ec]2) [DB]2 | [CA]4 |] %17
V:2
 x2 | x6 | x2 E2 x2 | x6 | x6 | x6 | x2 F2 x2 | E4 x2 | E4 E2 | x6 | x6 | x7 | x6 | x6 | E3 B2 x | %15
 x6 | x4 |] %17
V:3
 [A,,A,]2 | [C,A,]2 [F,A,]2 [D,D]2 | [E,B,]2 [E,G,]2 B,2 | [C,A,]4 [E,G,]2 | [A,,A,]4 A,2 | %5
 [G,B,]2 [E,G,]2 A,2 | ([F,C][F,C]) [^D,B,]2 [B,,B,]2 | ([E,B,]2 [A,,C]2) (B,A,) | %8
 [E,G,]4 [C,A,]2 | [D,A,]2 [C,A,]2 [B,,B,]2 | [F,A,]2 [E,A,]2 [D,B,]2 | C3 (z B,) [F,A,]2 | %12
 [E,B,]4 [C,C]2 | [F,C]2 [G,B,]2 A,2 | [E,A,]2 [E,G,]2 [F,A,]2 | A,4 [E,G,]2 | [A,,A,]4 |] %17
V:4
 x2 | x6 | x4 (E,D,) | x6 | x4 A,2 | x4 A,2 | x6 | x4 B,,2 | x6 | x6 | x6 | A,2 G,2 x3 | x6 | %13
 x4 A,2 | x6 | (D,2 E,2) x2 | x4 |] %17

